apps/app.mento.org/public/tokens/XOFm.svg

<svg width="220" height="220" viewBox="0 0 220 220" fill="none" xmlns="http://www.w3.org/2000/svg">
<path d="M110 220C170.751 220 220 170.751 220 110C220 49.2487 170.751 0 110 0C49.2487 0 0 49.2487 0 110C0 170.751 49.2487 220 110 220Z" fill="#510DC1"/>
<path d="M110 23C158.049 23 197 61.9512 197 110C197 158.049 158.049 197 110 197C61.9512 197 23 158.049 23 110C23 61.9512 61.9512 23 110 23Z" fill="#D9D9D9" stroke="url(#paint0_linear_2057_367)" stroke-width="36"/>
<path d="M110 202C160.81 202 202 160.81 202 110C202 59.1898 160.81 18 110 18C59.1898 18 18 59.1898 18 110C18 160.81 59.1898 202 110 202Z" fill="#510DC1"/>
<path d="M155.152 74.0455C153.754 72.9219 135.305 74.205 135.305 74.205C132.368 74.7478 132.284 72.8839 132.284 72.8839L132.059 71.9577C132.059 71.9577 127.668 47.1277 107.821 46.0041C107.821 46.0041 93.8356 45.4081 81.2485 58.6373C81.2485 58.6373 72.5505 67.782 70.7747 71.5477C70.0998 72.4018 69.0954 72.9713 67.9785 73.1345C67.9785 73.1345 50.2329 79.7396 47.7982 81.444C45.3636 83.1485 46.1068 85.0769 46.1068 85.0769C46.1631 87.5633 47.1353 89.951 48.8548 91.8301C50.5744 93.7091 52.9367 94.9618 55.532 95.3718C55.532 95.3718 57.364 95.9943 63.0971 89.9548L70.0917 83.7558C70.0917 83.7558 75.5757 98.9666 76.3993 99.7069C77.2229 100.447 77.9782 101.4 82.1203 100.948C86.2584 100.5 91.3768 97.471 91.7545 93.0182C91.7545 93.0182 92.1884 92.0388 89.7256 89.7802C89.7256 89.7802 78.3157 76.699 78.0184 76.4067C77.7251 76.1144 77.1948 75.5222 78.2554 74.2809C79.3201 73.0396 89.8059 57.62 103.43 56.5761C103.43 56.5761 111.445 55.6233 112.927 64.8211C112.927 64.8211 108.97 63.5646 107.865 64.1872C106.76 64.8097 105.977 65.4702 106.342 68.2983V72.9105C106.342 72.9485 106.342 72.9902 106.342 73.0282C106.342 73.5293 106.117 74.7212 103.321 74.205C103.321 74.205 84.8201 72.8839 83.4783 74.0455C82.1364 75.2071 82.4859 75.5791 83.7153 77.1241L102.035 99.8929C100.786 100.743 99.8137 101.905 99.2271 103.252C98.6406 104.596 98.4678 106.073 98.7209 107.504C99.2713 110.621 101.903 112.086 103.815 112.746C105.133 113.202 106.74 112.727 107.937 113.418C108.251 113.6 108.488 113.9 108.536 114.386C108.705 116.091 110.215 121.678 110.131 122.684C110.046 123.69 110.424 124.005 107.825 124.351C105.225 124.693 90.7621 125.566 89.6452 129.832L104.84 130.352C106.816 130.421 108.934 130.649 110.292 132.008C110.979 132.695 111.493 133.518 111.798 134.418L112.272 140.272C112.272 140.272 112.292 140.602 112.272 140.788C112.252 140.974 112.184 141.156 112.071 141.312C111.959 141.467 111.802 141.593 111.621 141.676C111.441 141.76 111.139 141.817 111.139 141.817L109.476 141.896C109.476 141.896 99.2111 142.424 97.3911 147.18L106.254 147.438C108.837 147.514 112.324 147.503 112.983 149.864C113.019 149.997 113.044 150.141 113.056 150.289C113.168 152.218 113.152 155.27 113.152 155.27C113.152 155.27 113.152 156.169 111.308 156.169C109.464 156.169 102.469 157.676 101.911 161.454C101.911 161.454 111.545 161.56 111.702 161.624C112.272 161.81 112.77 162.148 113.14 162.6C113.871 163.496 114 164.726 113.887 165.849C113.855 166.161 113.795 166.464 113.706 166.764C113.546 167.307 113.12 167.907 112.778 168.366C112.533 168.693 112.405 168.913 112.26 169.289C111.971 170.029 111.593 171.331 112.14 172.079C113.369 173.4 116.334 174.06 119.287 173.996C122.24 173.931 125.189 173.426 126.418 172.079C127.214 170.997 126.056 168.734 126.056 168.734C126.056 168.734 125.357 167.797 125.161 167.558C124.642 166.498 124.506 165.303 124.783 164.164C124.827 163.594 125.048 163.052 125.414 162.6C125.779 162.148 126.281 161.81 126.852 161.624C127.077 161.56 136.711 161.454 136.711 161.454C136.153 157.646 129.13 156.169 127.314 156.169C125.498 156.169 125.538 155.323 125.538 155.323C125.538 155.323 125.538 152.271 125.635 150.342C125.683 149.378 126.41 148.691 127.129 148.251C128.005 147.712 129.074 147.594 130.118 147.568L141.311 147.29C139.491 142.481 129.226 142.006 129.226 142.006L127.563 141.927C127.563 141.927 127.262 141.866 127.081 141.782C126.9 141.699 126.748 141.574 126.631 141.418C126.519 141.262 126.446 141.08 126.43 140.894C126.41 140.704 126.43 140.382 126.43 140.382L126.679 137.341C126.832 135.47 127.053 133.48 128.415 132.118C129.777 130.759 131.886 130.527 133.863 130.463L149.057 129.942C147.896 125.676 133.437 124.829 130.878 124.457C128.318 124.089 128.652 123.797 128.571 122.794C128.487 121.789 129.97 116.189 130.179 114.496C130.211 114.246 130.291 114.041 130.408 113.881C131.388 112.511 133.774 113.316 135.385 112.674C137.225 111.942 139.479 110.472 139.981 107.614C140.239 106.179 140.07 104.706 139.483 103.362C138.901 102.015 137.928 100.853 136.679 100.003L154.858 77.2342C156.144 75.5829 156.482 75.173 155.152 74.0493V74.0455Z" fill="url(#paint1_linear_2057_367)"/>
<defs>
<linearGradient id="paint0_linear_2057_367" x1="184.375" y1="188.75" x2="31.25" y2="18.125" gradientUnits="userSpaceOnUse">
<stop offset="0.24186" stop-color="#FF0000"/>
<stop offset="0.768447" stop-color="#1A9900"/>
</linearGradient>
<linearGradient id="paint1_linear_2057_367" x1="101" y1="46" x2="101" y2="174" gradientUnits="userSpaceOnUse">
<stop stop-color="#E2DBFF"/>
<stop offset="0.975962" stop-color="#FBFAFF"/>
</linearGradient>
</defs>
</svg>

<svg xmlns="http://www.w3.org/2000/svg" width="220" height="220" fill="none" viewBox="0 0 220 220"><path fill="#510dc1" d="M110 220c60.751 0 110-49.249 110-110S170.751 0 110 0 0 49.249 0 110s49.249 110 110 110"/><path fill="#d9d9d9" stroke="url(#a)" stroke-width="36" d="M110 23c48.049 0 87 38.951 87 87s-38.951 87-87 87-87-38.951-87-87 38.951-87 87-87Z"/><path fill="#510dc1" d="M110 202c50.81 0 92-41.19 92-92s-41.19-92-92-92-92 41.19-92 92 41.19 92 92 92"/><path fill="url(#b)" d="M155.152 74.046c-1.398-1.124-19.847.159-19.847.159-2.937.543-3.021-1.321-3.021-1.321l-.225-.926s-4.391-24.83-24.238-25.954c0 0-13.985-.596-26.572 12.633 0 0-8.698 9.145-10.474 12.91a4.36 4.36 0 0 1-2.797 1.588s-17.745 6.605-20.18 8.309-1.691 3.633-1.691 3.633c.056 2.486 1.028 4.874 2.748 6.753s4.082 3.132 6.677 3.542c0 0 1.832.622 7.565-5.417l6.995-6.2s5.484 15.212 6.307 15.952 1.58 1.693 5.721 1.241c4.138-.448 9.257-3.477 9.634-7.93 0 0 .434-.98-2.028-3.238 0 0-11.41-13.081-11.708-13.373-.293-.293-.823-.885.237-2.126 1.065-1.241 11.55-16.661 25.175-17.705 0 0 8.015-.953 9.497 8.245 0 0-3.957-1.256-5.062-.634-1.105.623-1.888 1.283-1.523 4.111v4.73c0 .501-.225 1.693-3.021 1.177 0 0-18.5-1.321-19.843-.16s-.992 1.534.237 3.08l18.32 22.768a7.9 7.9 0 0 0-2.808 3.359 7.4 7.4 0 0 0-.506 4.252c.55 3.117 3.182 4.582 5.094 5.242 1.318.456 2.925-.019 4.122.672.314.182.551.482.599.968.169 1.705 1.679 7.292 1.595 8.298s.293 1.321-2.306 1.667c-2.6.342-17.063 1.215-18.18 5.481l15.195.52c1.976.069 4.094.297 5.452 1.656a6.24 6.24 0 0 1 1.506 2.41l.474 5.854s.02.33 0 .516a1.1 1.1 0 0 1-.651.888c-.18.084-.482.141-.482.141l-1.663.079s-10.265.528-12.085 5.284l8.863.258c2.583.076 6.07.065 6.729 2.426q.055.201.073.425c.112 1.929.096 4.981.096 4.981s0 .899-1.844.899-8.839 1.507-9.397 5.285c0 0 9.634.106 9.791.17.57.186 1.068.524 1.438.976.731.896.86 2.126.747 3.249a5 5 0 0 1-.181.915c-.16.543-.586 1.143-.928 1.602a3.4 3.4 0 0 0-.518.923c-.289.74-.667 2.042-.12 2.79 1.229 1.321 4.194 1.981 7.147 1.917s5.902-.57 7.131-1.917c.796-1.082-.362-3.345-.362-3.345s-.699-.937-.895-1.176a5 5 0 0 1-.378-3.394 2.83 2.83 0 0 1 .631-1.564c.365-.452.867-.79 1.438-.976.225-.064 9.859-.17 9.859-.17-.558-3.808-7.581-5.285-9.397-5.285s-1.776-.846-1.776-.846 0-3.052.097-4.981c.048-.964.775-1.651 1.494-2.091.876-.539 1.945-.657 2.989-.683l11.193-.278c-1.82-4.809-12.085-5.284-12.085-5.284l-1.663-.079s-.301-.061-.482-.145a1.2 1.2 0 0 1-.45-.364 1.07 1.07 0 0 1-.201-.524c-.02-.19 0-.512 0-.512l.249-3.041c.153-1.871.374-3.861 1.736-5.223 1.362-1.359 3.471-1.591 5.448-1.655l15.194-.521c-1.161-4.266-15.62-5.113-18.179-5.485-2.56-.368-2.226-.66-2.307-1.663-.084-1.005 1.399-6.605 1.608-8.298.032-.25.112-.455.229-.615.98-1.37 3.366-.565 4.977-1.207 1.84-.732 4.094-2.202 4.596-5.06a7.35 7.35 0 0 0-.498-4.252 7.84 7.84 0 0 0-2.804-3.359l18.179-22.769c1.286-1.651 1.624-2.061.294-3.185z"/><defs><linearGradient id="a" x1="184.375" x2="31.25" y1="188.75" y2="18.125" gradientUnits="userSpaceOnUse"><stop offset=".242" stop-color="red"/><stop offset=".768" stop-color="#1a9900"/></linearGradient><linearGradient id="b" x1="101" x2="101" y1="46" y2="174" gradientUnits="userSpaceOnUse"><stop stop-color="#e2dbff"/><stop offset=".976" stop-color="#fbfaff"/></linearGradient></defs></svg>
